X:262
T:Rond de St-Vincent
R:Rond de St. Vincent
N:original url: www.wolfram.claranet.de
D:Tan Ba'n Ty: Tomm Ruz
M:4/4
L:1/8
Q:1/4=168
K:Cm
|g2 g>f g2 d>e | f>g f>e d>d e>f| g2 g>f g>g d>e | f>g f>e {de}d2 (3def |
 g2 g>f g>g d>e | f>g f>e d>d e>d| g2 g>f g>g d>e |  f>g f>e {de}d2 d>d |
|c>e d>c {de}d2 d>d | e>g f>d e>e c>B| c>e d>c {de}d2 c>d | e>g f>d e2 {ce}c2|
 c>e d>c {de}d2 d>d | e>g f>d e>e c>B| c>e d>c {de}d2 c>d | e>g f>d e>c d>c||
